X:137
T:Soldier's Joy
C:N.J. Col.Militia
C:Harmony by M. Chioda and N. Langer  Introduction and Ending by A. Terreri
M:2/4
L:1/16
%%staves (1 2 3)
K:D
V:1
P:Introduction
AFDF .A2z2|dBGB .d2z2|AFDF .A2z2|GECE .G2z2|AFDF .A2z2|dBGB d2z2|F.Az2 E.Az2|.D2 z2 z4||
V:2
x8|x8|x8|x8|x8|x8|x8|x8|
V:3
x8|x8|x8|x8|x8|x8|x8|x8|
%%staves [1 2 3]
V:1
FG|AFDF AFDF|A2 .d2 .d2 cB|AFDF AFDF|.G2 .E2 .E2 FG|AFDF AFDF|
A2 .d2 .d2de|fafd egec|.d2.d2.d2::de|fdfd fagf|ecec egfe|fdfd fagf|
edcB A2 de|fdfd fagf|ecec egfe|fafd egec|.d2 .d2 .d2:|
V:2
DB|A2d2 f2dA|F2A2 A2AG|A2d2 f2dA|c2 .c2 .c2 dB|A2d2 f2dA|
F2g2 g2B2|d2A2 c2AG|.A2 .A2 .A2::B2|A2A2 dfed|cAcA c2AG|A2A2 dfed|
A2G2 c2 B2|A2A2 dfed|cAcA c2AG|dfdA cBAG|.A2 .A2 .A2:|
V:3
DE|F2A2 D2A2|D2F2 F2FE|F2A2 D2A2|C2G2 G2DE|F2A2 D2A2|
D2B2 B2G2|A2F2 G2FE|.F2 .F2 .F2::G2|F2D2 F2A2|E2E2 G2FE|F2D2 F2A2|
E2C2 E2 G2|F2D2 F2A2|E2E2 G2FE|A2F2 G2FE|.F2 .F2 .F2:|
%%staves (1 2 3)
P:Ending
V:1
z2|AFDF AFDF|A2 z2 z4|AFDF AFDF|G.E z2 z4|AFDF AFDF|.A2 z2 z4|F.A z2 E.A z2|.d4 z2||
V:2
x2|x8|x8|x8|x8|x8|x8|x8|x6||
V:3
x2|x8|x8|x8|x8|x8|x8|x8|x6||
